X: 5006
T: Breton Connection, The
R: waltz
M: 3/4
K: Bminor
fd|:"Em"e2 e2 fd|"Bm"B2 B2 AB|"A"c2ce dc|"D"dc de fd|
"Em"e2 e2 fd|"Bm"B2 B2 AB|"A"cB A"F#m"c BA|1 "Bm"B4 fd:|2 "Bm"B2BA Bc|
|:"D"d4 e2|"Bm"f2fe dc|"Em"B2Bd fd|"A"c2cA Bc|
"D"d4 e2|"Bm"f2fe dc|"Em"B/c/d "A"cB "F#m"A2|1 "Bm"B2BA Bc:|2 "Bm"B6||

